shared/images/iconfont/kb-iconfont-add-16.svg

<?xml version="1.0" encoding="UTF-8"?>
<svg width="16px" height="16px" viewBox="0 0 16 16" version="1.1" xmlns="http://www.w3.org/2000/svg" xmlns:xlink="http://www.w3.org/1999/xlink">
    <!-- Generator: sketchtool 49.3 (51167) - http://www.bohemiancoding.com/sketch -->
    <title>E0CF6225-59AF-4C84-A5DB-15A76FE35CD4</title>
    <desc>Created with sketchtool.</desc>
    <defs></defs>
    <g id="Colors,-icons" stroke="none" stroke-width="1" fill="none" fill-rule="evenodd">
        <g id="Icons-2" transform="translate(-431.000000, -454.000000)">
            <g id="kb-iconfont-add-16" transform="translate(431.000000, 454.000000)">
                <rect id="icon-area" fill="#D8D8D8" opacity="0" x="0" y="0" width="16" height="16"></rect>
                <path d="M0,8 C0,3.581722 3.59071231,0 8,0 C12.418278,0 16,3.59071231 16,8 C16,12.418278 12.4092877,16 8,16 C3.581722,16 0,12.4092877 0,8 Z M11.4,7.15 L8.85,7.15 L8.85,4.6 C8.85,4.13055796 8.46944204,3.75 8,3.75 C7.53055796,3.75 7.15,4.13055796 7.15,4.6 L7.15,7.15 L4.6,7.15 C4.13055796,7.15 3.75,7.53055796 3.75,8 C3.75,8.46944204 4.13055796,8.85 4.6,8.85 L7.15,8.85 L7.15,11.4 C7.15,11.869442 7.53055796,12.25 8,12.25 C8.46944204,12.25 8.85,11.869442 8.85,11.4 L8.85,8.85 L11.4,8.85 C11.869442,8.85 12.25,8.46944204 12.25,8 C12.25,7.53055796 11.869442,7.15 11.4,7.15 Z" id="Combined-Shape" fill="#000000"></path>
            </g>
        </g>
    </g>
</svg>

<svg xmlns="http://www.w3.org/2000/svg" width="16" height="16" viewBox="0 0 16 16">
    <path fill="#000" fill-rule="evenodd" d="M0 8c0-4.418 3.59-8 8-8 4.418 0 8 3.59 8 8 0 4.418-3.59 8-8 8-4.418 0-8-3.59-8-8zm11.4-.85H8.85V4.6a.85.85 0 1 0-1.7 0v2.55H4.6a.85.85 0 1 0 0 1.7h2.55v2.55a.85.85 0 0 0 1.7 0V8.85h2.55a.85.85 0 0 0 0-1.7z"/>
</svg>
